src/assets/svgs/copy.svg

<svg fill="none" height="20" viewBox="0 0 21 20" width="21" xmlns="http://www.w3.org/2000/svg"><path d="m12.0002 20.0002h-10.00001c-.26513.0092-.52931-.0362-.77613-.1335-.246822-.0972-.470995-.2442-.658581-.4318s-.334574-.4118-.431823-.6586c-.0972487-.2468-.14267906-.511-.1334658-.7761v-10.00001c-.00921326-.26513.0362171-.52931.1334658-.77613.097249-.24682.244237-.471.431823-.65858.187586-.18759.411759-.33457.658581-.43182.24682-.09725.511-.14268.77613-.13347h4v-4c-.00921-.26513.03622-.52931.13347-.77613.09725-.246822.24423-.470995.43182-.658581.18758-.187586.41176-.334574.65858-.431823.24682-.0972487.511-.14267906.77613-.1334658h10.00001c.2651-.00921326.5293.0362171.7761.1334658.2468.097249.471.244237.6586.431823s.3346.411759.4318.658581c.0973.24682.1427.511.1335.77613v10.00001c.0091.2651-.0365.5292-.1338.776-.0973.2467-.2443.4708-.4318.6584-.1876.1875-.4117.3345-.6584.4318-.2468.0973-.5109.1429-.776.1338h-4v4c.0091.2651-.0365.5292-.1338.776-.0973.2467-.2443.4708-.4318.6584-.1876.1875-.4117.3345-.6584.4318-.2468.0973-.5109.1429-.776.1338zm-10.00001-12.00001v10.00001h10.00001v-4h-4.00001c-.26509.0091-.52921-.0365-.77596-.1338s-.47087-.2443-.65842-.4318c-.18756-.1876-.33455-.4117-.43185-.6584-.0973-.2468-.14283-.5109-.13377-.776v-4.00001zm6-6v10.00001h10.00001v-10.00001z" fill="#333"/></svg>

<svg width="21" height="20" viewBox="0 0 21 20" fill="none" xmlns="http://www.w3.org/2000/svg">
  <path d="M12.0002 20.0002H2.00019C1.73506 20.0094 1.47088 19.964 1.22406 19.8667C0.977238 19.7695 0.753065 19.6225 0.565479 19.4349C0.377893 19.2473 0.230905 19.0231 0.133656 18.7763C0.0364073 18.5295 -0.00902306 18.2653 0.000190195 18.0002V8.00019C-0.00902306 7.73506 0.0364073 7.47088 0.133656 7.22406C0.230905 6.97724 0.377893 6.75306 0.565479 6.56548C0.753065 6.37789 0.977238 6.23091 1.22406 6.13366C1.47088 6.03641 1.73506 5.99098 2.00019 6.00019H6.00019V2.00019C5.99098 1.73506 6.03641 1.47088 6.13366 1.22406C6.23091 0.977238 6.37789 0.753065 6.56548 0.565479C6.75306 0.377893 6.97724 0.230905 7.22406 0.133656C7.47088 0.0364073 7.73506 -0.00902306 8.00019 0.000190195H18.0002C18.2653 -0.00902306 18.5295 0.0364073 18.7763 0.133656C19.0231 0.230905 19.2473 0.377893 19.4349 0.565479C19.6225 0.753065 19.7695 0.977238 19.8667 1.22406C19.964 1.47088 20.0094 1.73506 20.0002 2.00019V12.0002C20.0093 12.2653 19.9637 12.5294 19.8664 12.7762C19.7691 13.0229 19.6221 13.247 19.4346 13.4346C19.247 13.6221 19.0229 13.7691 18.7762 13.8664C18.5294 13.9637 18.2653 14.0093 18.0002 14.0002H14.0002V18.0002C14.0093 18.2653 13.9637 18.5294 13.8664 18.7762C13.7691 19.0229 13.6221 19.247 13.4346 19.4346C13.247 19.6221 13.0229 19.7691 12.7762 19.8664C12.5294 19.9637 12.2653 20.0093 12.0002 20.0002ZM2.00019 8.00019V18.0002H12.0002V14.0002H8.00019C7.7351 14.0093 7.47098 13.9637 7.22423 13.8664C6.97748 13.7691 6.75336 13.6221 6.56581 13.4346C6.37825 13.247 6.23126 13.0229 6.13396 12.7762C6.03666 12.5294 5.99113 12.2653 6.00019 12.0002V8.00019H2.00019ZM8.00019 2.00019V12.0002H18.0002V2.00019H8.00019Z" fill="#333333"/>
</svg>
